lib/brands/icons/bing.svg

<svg xmlns="http://www.w3.org/2000/svg" fill="none" aria-hidden="true" viewBox="0 0 48 48"><g id="bing-Icon"><g id="Group"><path id="Vector" fill="#7F7F7F" d="M22.8747 17.8723C22.8687 17.9203 22.8687 17.9748 22.8687 18.0283C22.8687 18.2364 22.9102 18.4364 22.9852 18.6205L23.0522 18.7585L23.3173 19.4367L24.6941 22.949L25.8949 26.0162C26.2375 26.6354 26.7861 27.1215 27.4477 27.3805L27.6533 27.4561C27.6613 27.4586 27.6748 27.4586 27.6858 27.4616L30.9771 28.5933V28.5958L32.2354 29.0279L32.3214 29.0569C32.3244 29.0569 32.3294 29.0599 32.3324 29.0599C32.5805 29.1225 32.8235 29.2065 33.0556 29.309C33.5922 29.5406 34.0788 29.8706 34.4944 30.2732C34.662 30.4333 34.816 30.6058 34.9585 30.7899C35.0799 30.9444 35.1908 31.1068 35.2906 31.276C35.7297 32.0051 35.9818 32.8623 35.9818 33.7751C35.9818 33.9381 35.9738 34.0956 35.9573 34.2557C35.9518 34.3262 35.9433 34.3942 35.9328 34.4617V34.4672C35.9218 34.5387 35.9082 34.6128 35.8947 34.6853C35.8807 34.7558 35.8677 34.8258 35.8517 34.8958C35.8492 34.9038 35.8462 34.9123 35.8432 34.9203C35.8282 34.9914 35.8092 35.0614 35.7897 35.1319C35.7722 35.1984 35.7502 35.2669 35.7257 35.3314C35.7041 35.402 35.6789 35.4715 35.6502 35.5395C35.6257 35.6095 35.5967 35.6805 35.5642 35.7475C35.4751 35.9531 35.3691 36.1506 35.2501 36.3392C35.0967 36.5868 34.9214 36.8203 34.7265 37.0368C36.2708 35.3764 37.2976 33.2324 37.5531 30.8599C37.5961 30.4708 37.6182 30.0762 37.6182 29.6791C37.6182 29.4255 37.6072 29.1745 37.5906 28.9224C37.3961 26.0772 36.1008 23.5326 34.1238 21.7167C33.5787 21.2121 32.9831 20.763 32.3424 20.3819L31.1321 19.7632L24.9992 16.616C24.8106 16.5352 24.6076 16.4936 24.4025 16.494C23.6083 16.494 22.9527 17.0996 22.8747 17.8723V17.8723Z"/><path id="Vector_2" fill="url(#paint0_linear_94_17223)" d="M22.8747 17.8723C22.8687 17.9203 22.8687 17.9748 22.8687 18.0283C22.8687 18.2364 22.9102 18.4364 22.9852 18.6205L23.0522 18.7585L23.3173 19.4367L24.6941 22.949L25.8949 26.0162C26.2375 26.6354 26.7861 27.1215 27.4477 27.3805L27.6533 27.4561C27.6613 27.4586 27.6748 27.4586 27.6858 27.4616L30.9771 28.5933V28.5958L32.2354 29.0279L32.3214 29.0569C32.3244 29.0569 32.3294 29.0599 32.3324 29.0599C32.5805 29.1225 32.8235 29.2065 33.0556 29.309C33.5922 29.5406 34.0788 29.8706 34.4944 30.2732C34.662 30.4333 34.816 30.6058 34.9585 30.7899C35.0799 30.9444 35.1908 31.1068 35.2906 31.276C35.7297 32.0051 35.9818 32.8623 35.9818 33.7751C35.9818 33.9381 35.9738 34.0956 35.9573 34.2557C35.9518 34.3262 35.9433 34.3942 35.9328 34.4617V34.4672C35.9218 34.5387 35.9082 34.6128 35.8947 34.6853C35.8807 34.7558 35.8677 34.8258 35.8517 34.8958C35.8492 34.9038 35.8462 34.9123 35.8432 34.9203C35.8282 34.9914 35.8092 35.0614 35.7897 35.1319C35.7722 35.1984 35.7502 35.2669 35.7257 35.3314C35.7041 35.402 35.6789 35.4715 35.6502 35.5395C35.6257 35.6095 35.5967 35.6805 35.5642 35.7475C35.4751 35.9531 35.3691 36.1506 35.2501 36.3392C35.0967 36.5868 34.9214 36.8203 34.7265 37.0368C36.2708 35.3764 37.2976 33.2324 37.5531 30.8599C37.5961 30.4708 37.6182 30.0762 37.6182 29.6791C37.6182 29.4255 37.6072 29.1745 37.5906 28.9224C37.3961 26.0772 36.1008 23.5326 34.1238 21.7167C33.5787 21.2121 32.9831 20.763 32.3424 20.3819L31.1321 19.7632L24.9992 16.616C24.8106 16.5352 24.6076 16.4936 24.4025 16.494C23.6083 16.494 22.9527 17.0996 22.8747 17.8723V17.8723Z"/><path id="Vector_3" fill="#7F7F7F" d="M11.9547 4C11.082 4.0155 10.3813 4.72967 10.3813 5.60288V33.5625C10.3848 33.7576 10.3959 33.9501 10.4099 34.1457C10.4224 34.2487 10.4359 34.3557 10.4549 34.4597C10.8535 36.7038 12.8059 38.4067 15.1635 38.4067C15.9902 38.4067 16.7654 38.1961 17.4435 37.83C17.4475 37.827 17.4545 37.823 17.458 37.823L17.7021 37.6755L18.6913 37.0934L19.9496 36.3467L19.9526 11.5043C19.9526 9.85339 19.1264 8.39805 17.8616 7.53334C17.8316 7.51534 17.8026 7.49633 17.7761 7.47483L12.8799 4.27306C12.6319 4.10903 12.3328 4.006 12.0122 4H11.9547Z"/><path id="Vector_4" fill="url(#paint1_linear_94_17223)" d="M11.9547 4C11.082 4.0155 10.3813 4.72967 10.3813 5.60288V33.5625C10.3848 33.7576 10.3959 33.9501 10.4099 34.1457C10.4224 34.2487 10.4359 34.3557 10.4549 34.4597C10.8535 36.7038 12.8059 38.4067 15.1635 38.4067C15.9902 38.4067 16.7654 38.1961 17.4435 37.83C17.4475 37.827 17.4545 37.823 17.458 37.823L17.7021 37.6755L18.6913 37.0934L19.9496 36.3467L19.9526 11.5043C19.9526 9.85339 19.1264 8.39805 17.8616 7.53334C17.8316 7.51534 17.8026 7.49633 17.7761 7.47483L12.8799 4.27306C12.6319 4.10903 12.3328 4.006 12.0122 4H11.9547Z"/><path id="Vector_5" fill="#7F7F7F" d="M31.369 29.5431L20.1118 36.2156L19.9498 36.3132V36.3487L18.6915 37.0938L17.7028 37.6775L17.4602 37.824L17.4437 37.832C16.7671 38.1996 15.9914 38.4077 15.1652 38.4077C12.8081 38.4077 10.8531 36.7058 10.4561 34.4607C10.6446 36.1031 11.2042 37.632 12.0484 38.9638C13.7868 41.7079 16.7265 43.6169 20.1274 43.9485H22.2068C24.0463 43.7564 25.5821 43.0198 27.1965 42.025L29.6791 40.5067C30.7974 39.79 33.8326 38.0271 34.7268 37.0378C34.9214 36.8213 35.0969 36.5892 35.2504 36.3407C35.3695 36.1516 35.4755 35.9541 35.5645 35.7485C35.5945 35.6785 35.623 35.6105 35.6505 35.541C35.6765 35.472 35.7011 35.4024 35.7261 35.3319C35.7726 35.1969 35.8096 35.0614 35.8451 34.9218C35.8631 34.8423 35.8796 34.7638 35.8961 34.6858C35.9501 34.3912 35.9796 34.0886 35.9796 33.7751C35.9796 32.8623 35.7276 32.0051 35.291 31.277C35.1909 31.1069 35.0809 30.9444 34.9589 30.7908C34.8163 30.6058 34.6623 30.4343 34.4948 30.2742C34.0792 29.8716 33.5941 29.5416 33.0559 29.3095C32.8239 29.207 32.5818 29.1225 32.3328 29.0609C32.3298 29.0609 32.3247 29.0579 32.3217 29.0579L32.2357 29.0289L31.369 29.5431Z"/><path id="Vector_6" fill="url(#paint2_linear_94_17223)" d="M31.369 29.5431L20.1118 36.2156L19.9498 36.3132V36.3487L18.6915 37.0938L17.7028 37.6775L17.4602 37.824L17.4437 37.832C16.7671 38.1996 15.9914 38.4077 15.1652 38.4077C12.8081 38.4077 10.8531 36.7058 10.4561 34.4607C10.6446 36.1031 11.2042 37.632 12.0484 38.9638C13.7868 41.7079 16.7265 43.6169 20.1274 43.9485H22.2068C24.0463 43.7564 25.5821 43.0198 27.1965 42.025L29.6791 40.5067C30.7974 39.79 33.8326 38.0271 34.7268 37.0378C34.9214 36.8213 35.0969 36.5892 35.2504 36.3407C35.3695 36.1516 35.4755 35.9541 35.5645 35.7485C35.5945 35.6785 35.623 35.6105 35.6505 35.541C35.6765 35.472 35.7011 35.4024 35.7261 35.3319C35.7726 35.1969 35.8096 35.0614 35.8451 34.9218C35.8631 34.8423 35.8796 34.7638 35.8961 34.6858C35.9501 34.3912 35.9796 34.0886 35.9796 33.7751C35.9796 32.8623 35.7276 32.0051 35.291 31.277C35.1909 31.1069 35.0809 30.9444 34.9589 30.7908C34.8163 30.6058 34.6623 30.4343 34.4948 30.2742C34.0792 29.8716 33.5941 29.5416 33.0559 29.3095C32.8239 29.207 32.5818 29.1225 32.3328 29.0609C32.3298 29.0609 32.3247 29.0579 32.3217 29.0579L32.2357 29.0289L31.369 29.5431Z"/><path id="Vector_7" fill="#7F7F7F" d="M35.9796 33.7751C35.9796 34.0886 35.9501 34.3917 35.8956 34.6863C35.8796 34.7643 35.8631 34.8423 35.8446 34.9213C35.8096 35.0614 35.7726 35.1969 35.7261 35.3324C35.7016 35.4024 35.6765 35.4725 35.6505 35.5405C35.6235 35.6105 35.5945 35.6785 35.564 35.7485C35.4749 35.9534 35.3702 36.1512 35.2509 36.3402C35.0976 36.5879 34.9222 36.8212 34.7268 37.0373C33.8326 38.0271 30.7974 39.79 29.6791 40.5067L27.1965 42.025C25.3766 43.1463 23.6572 43.94 21.4887 43.9945C21.3862 43.9975 21.2856 44 21.1861 44C21.0461 44 20.908 43.9975 20.7695 43.992C17.0976 43.852 13.8954 41.879 12.0484 38.9638C11.1842 37.6024 10.6398 36.0628 10.4561 34.4607C10.8531 36.7058 12.8081 38.4077 15.1652 38.4077C15.9914 38.4077 16.7671 38.1991 17.4437 37.832L17.4602 37.8235L17.7028 37.6775L18.6915 37.0938L19.9498 36.3487V36.3132L20.1118 36.2156L31.369 29.5426L32.2357 29.0289L32.3217 29.0579C32.3242 29.0579 32.3298 29.0609 32.3328 29.0609C32.5818 29.1225 32.8244 29.207 33.0559 29.3095C33.5941 29.5416 34.0787 29.8716 34.4948 30.2742C34.6622 30.4345 34.8174 30.6072 34.9589 30.7908C35.0809 30.9444 35.1909 31.1069 35.291 31.277C35.7276 32.0051 35.9796 32.8623 35.9796 33.7751V33.7751Z" opacity="0.15"/><path id="Vector_8" fill="url(#paint3_linear_94_17223)" d="M35.9796 33.7751C35.9796 34.0886 35.9501 34.3917 35.8956 34.6863C35.8796 34.7643 35.8631 34.8423 35.8446 34.9213C35.8096 35.0614 35.7726 35.1969 35.7261 35.3324C35.7016 35.4024 35.6765 35.4725 35.6505 35.5405C35.6235 35.6105 35.5945 35.6785 35.564 35.7485C35.4749 35.9534 35.3702 36.1512 35.2509 36.3402C35.0976 36.5879 34.9222 36.8212 34.7268 37.0373C33.8326 38.0271 30.7974 39.79 29.6791 40.5067L27.1965 42.025C25.3766 43.1463 23.6572 43.94 21.4887 43.9945C21.3862 43.9975 21.2856 44 21.1861 44C21.0461 44 20.908 43.9975 20.7695 43.992C17.0976 43.852 13.8954 41.879 12.0484 38.9638C11.1842 37.6024 10.6398 36.0628 10.4561 34.4607C10.8531 36.7058 12.8081 38.4077 15.1652 38.4077C15.9914 38.4077 16.7671 38.1991 17.4437 37.832L17.4602 37.8235L17.7028 37.6775L18.6915 37.0938L19.9498 36.3487V36.3132L20.1118 36.2156L31.369 29.5426L32.2357 29.0289L32.3217 29.0579C32.3242 29.0579 32.3298 29.0609 32.3328 29.0609C32.5818 29.1225 32.8244 29.207 33.0559 29.3095C33.5941 29.5416 34.0787 29.8716 34.4948 30.2742C34.6622 30.4345 34.8174 30.6072 34.9589 30.7908C35.0809 30.9444 35.1909 31.1069 35.291 31.277C35.7276 32.0051 35.9796 32.8623 35.9796 33.7751V33.7751Z" opacity="0.15"/></g></g><defs><linearGradient id="paint0_linear_94_17223" x1="24.6957" x2="37.4825" y1="18.2068" y2="32.4574" gradientUnits="userSpaceOnUse"><stop stop-color="#37BDFF"/><stop offset="0.25" stop-color="#26C6F4"/><stop offset="0.5" stop-color="#15D0E9"/><stop offset="0.75" stop-color="#3BD6DF"/><stop offset="1" stop-color="#62DCD4"/></linearGradient><linearGradient id="paint1_linear_94_17223" x1="15.8236" x2="15.4123" y1="37.802" y2="6.17897" gradientUnits="userSpaceOnUse"><stop stop-color="#1B48EF"/><stop offset="0.5" stop-color="#2080F1"/><stop offset="1" stop-color="#26B8F4"/></linearGradient><linearGradient id="paint2_linear_94_17223" x1="23.2177" x2="54.1655" y1="36.4887" y2="36.4887" gradientUnits="userSpaceOnUse"><stop stop-color="#39D2FF"/><stop offset="0.5" stop-color="#248FFA"/><stop offset="1" stop-color="#104CF5"/></linearGradient><linearGradient id="paint3_linear_94_17223" x1="23.2177" x2="54.1655" y1="36.4887" y2="36.4887" gradientUnits="userSpaceOnUse"><stop stop-color="white"/><stop offset="1"/></linearGradient></defs></svg>

<svg xmlns="http://www.w3.org/2000/svg" fill="none" aria-hidden="true" viewBox="0 0 48 48"><path fill="#7F7F7F" d="M22.875 17.872c-.006.048-.006.103-.006.156 0 .208.041.408.116.593l.067.138.265.678 1.377 3.512 1.201 3.067a3.05 3.05 0 0 0 1.553 1.365l.206.075c.008.003.021.003.032.006l3.291 1.131v.003l1.259.432.086.029.01.003a4.815 4.815 0 0 1 2.162 1.213c.168.16.322.333.465.517a4.832 4.832 0 0 1 .974 3.672v.005a7.13 7.13 0 0 1-.038.218c-.014.07-.027.14-.043.21a.475.475 0 0 1-.008.025 3.522 3.522 0 0 1-.118.411c-.022.071-.047.14-.076.208a1.98 1.98 0 0 1-.086.209 4.892 4.892 0 0 1-.838 1.29 10.75 10.75 0 0 0 2.827-6.178 10.756 10.756 0 0 0 .038-1.938 10.768 10.768 0 0 0-3.467-7.205 10.611 10.611 0 0 0-1.781-1.335l-1.21-.619-6.134-3.147a1.537 1.537 0 0 0-2.125 1.256Z"/><path fill="url(#a)" d="M22.875 17.872c-.006.048-.006.103-.006.156 0 .208.041.408.116.593l.067.138.265.678 1.377 3.512 1.201 3.067a3.05 3.05 0 0 0 1.553 1.365l.206.075c.008.003.021.003.032.006l3.291 1.131v.003l1.259.432.086.029.01.003a4.815 4.815 0 0 1 2.162 1.213c.168.16.322.333.465.517a4.832 4.832 0 0 1 .974 3.672v.005a7.13 7.13 0 0 1-.038.218c-.014.07-.027.14-.043.21a.475.475 0 0 1-.008.025 3.522 3.522 0 0 1-.118.411c-.022.071-.047.14-.076.208a1.98 1.98 0 0 1-.086.209 4.892 4.892 0 0 1-.838 1.29 10.75 10.75 0 0 0 2.827-6.178 10.756 10.756 0 0 0 .038-1.938 10.768 10.768 0 0 0-3.467-7.205 10.611 10.611 0 0 0-1.781-1.335l-1.21-.619-6.134-3.147a1.537 1.537 0 0 0-2.125 1.256Z"/><path fill="#7F7F7F" d="M11.955 4a1.604 1.604 0 0 0-1.573 1.603v27.96c.003.195.014.387.028.583a4.783 4.783 0 0 0 7.048 3.677l.244-.148.99-.582 1.258-.746.003-24.843a4.797 4.797 0 0 0-2.177-4.03l-4.896-3.2A1.631 1.631 0 0 0 12.012 4h-.057Z"/><path fill="url(#b)" d="M11.955 4a1.604 1.604 0 0 0-1.573 1.603v27.96c.003.195.014.387.028.583a4.783 4.783 0 0 0 7.048 3.677l.244-.148.99-.582 1.258-.746.003-24.843a4.797 4.797 0 0 0-2.177-4.03l-4.896-3.2A1.631 1.631 0 0 0 12.012 4h-.057Z"/><path fill="#7F7F7F" d="m31.369 29.543-11.257 6.673-.162.097v.036l-1.259.745-.988.584-.243.146-.016.008a4.782 4.782 0 0 1-6.988-3.371 10.672 10.672 0 0 0 1.592 4.503 10.813 10.813 0 0 0 8.08 4.985h2.079c1.84-.193 3.375-.93 4.99-1.924l2.482-1.518c1.118-.717 4.154-2.48 5.048-3.47a4.882 4.882 0 0 0 .923-1.496l.076-.21c.046-.134.084-.27.119-.41l.051-.235c.054-.295.084-.597.084-.91a4.85 4.85 0 0 0-1.485-3.502 4.806 4.806 0 0 0-2.162-1.213l-.011-.003-.086-.03-.867.515Z"/><path fill="url(#c)" d="m31.369 29.543-11.257 6.673-.162.097v.036l-1.259.745-.988.584-.243.146-.016.008a4.782 4.782 0 0 1-6.988-3.371 10.672 10.672 0 0 0 1.592 4.503 10.813 10.813 0 0 0 8.08 4.985h2.079c1.84-.193 3.375-.93 4.99-1.924l2.482-1.518c1.118-.717 4.154-2.48 5.048-3.47a4.882 4.882 0 0 0 .923-1.496l.076-.21c.046-.134.084-.27.119-.41l.051-.235c.054-.295.084-.597.084-.91a4.85 4.85 0 0 0-1.485-3.502 4.806 4.806 0 0 0-2.162-1.213l-.011-.003-.086-.03-.867.515Z"/><path fill="#7F7F7F" d="M35.98 33.775a4.994 4.994 0 0 1-.136 1.146 4.954 4.954 0 0 1-.28.828 4.826 4.826 0 0 1-.837 1.289c-.894.99-3.93 2.752-5.048 3.469l-2.483 1.518c-1.82 1.121-3.539 1.915-5.707 1.97a10.374 10.374 0 0 1-.72-.003 10.808 10.808 0 0 1-8.72-5.028 10.672 10.672 0 0 1-1.593-4.503 4.782 4.782 0 0 0 6.988 3.371l.016-.008.243-.146.988-.584 1.259-.745v-.036l.162-.097 11.257-6.673.867-.514.086.029.01.003a4.813 4.813 0 0 1 2.162 1.213c.168.16.323.333.465.517a4.85 4.85 0 0 1 1.02 2.984Z" opacity=".15"/><path fill="url(#d)" d="M35.98 33.775a4.994 4.994 0 0 1-.136 1.146 4.954 4.954 0 0 1-.28.828 4.826 4.826 0 0 1-.837 1.289c-.894.99-3.93 2.752-5.048 3.469l-2.483 1.518c-1.82 1.121-3.539 1.915-5.707 1.97a10.374 10.374 0 0 1-.72-.003 10.808 10.808 0 0 1-8.72-5.028 10.672 10.672 0 0 1-1.593-4.503 4.782 4.782 0 0 0 6.988 3.371l.016-.008.243-.146.988-.584 1.259-.745v-.036l.162-.097 11.257-6.673.867-.514.086.029.01.003a4.813 4.813 0 0 1 2.162 1.213c.168.16.323.333.465.517a4.85 4.85 0 0 1 1.02 2.984Z" opacity=".15"/><defs><linearGradient id="a" x1="24.696" x2="37.483" y1="18.207" y2="32.457" gradientUnits="userSpaceOnUse"><stop stop-color="#37BDFF"/><stop offset=".25" stop-color="#26C6F4"/><stop offset=".5" stop-color="#15D0E9"/><stop offset=".75" stop-color="#3BD6DF"/><stop offset="1" stop-color="#62DCD4"/></linearGradient><linearGradient id="b" x1="15.824" x2="15.412" y1="37.802" y2="6.179" gradientUnits="userSpaceOnUse"><stop stop-color="#1B48EF"/><stop offset=".5" stop-color="#2080F1"/><stop offset="1" stop-color="#26B8F4"/></linearGradient><linearGradient id="c" x1="23.218" x2="54.165" y1="36.489" y2="36.489" gradientUnits="userSpaceOnUse"><stop stop-color="#39D2FF"/><stop offset=".5" stop-color="#248FFA"/><stop offset="1" stop-color="#104CF5"/></linearGradient><linearGradient id="d" x1="23.218" x2="54.165" y1="36.489" y2="36.489" gradientUnits="userSpaceOnUse"><stop stop-color="#fff"/><stop offset="1"/></linearGradient></defs></svg>
